svg/300/sharp/lte_mobiledata_badge-fill.svg

<svg xmlns="http://www.w3.org/2000/svg" width="48" height="48" viewBox="0 -960 960 960"><path d="M183.079-330.001h167.614v-45.383H228.462v-254.615h-45.383v299.998Zm237.23 0h45.383v-254.615h83.846v-45.383H336.847v45.383h83.462v254.615Zm202.076 0h167.614v-45.383h-122.23v-81.924h82.23v-45.384h-82.23v-81.924h122.23v-45.383H622.385v299.998Zm-562.384 190v-679.998H900v679.998H60.001Z"/></svg>

<svg xmlns="http://www.w3.org/2000/svg" width="48" height="48" viewBox="0 -960 960 960"><path d="M183.08-330h167.61v-45.38H228.46V-630h-45.38v300Zm237.23 0h45.38v-254.62h83.85V-630H336.85v45.38h83.46V-330Zm202.08 0H790v-45.38H667.77v-81.93H750v-45.38h-82.23v-81.93H790V-630H622.39v300ZM60-140v-680h840v680H60Z"/></svg>
